X:545
T:BAdd545-  In the Wanton Season
S:melody only, BL MS 30486, via J. Ward, JAMS XX, 1967 
Q:1/4=120
L:1/4
M:C|
K:D dorian
A2f2|e2^c2|dfed|^c2A2|\
fdge|ad^cA|B/c/d2^c|dDD2|\
faA2|egc3/2e/|dfed|^c2A2|\
fdge|ad^cA|B/c/d2^c|dDD2|]
